flaticon/science/biohazard-1.svg

<svg xmlns="http://www.w3.org/2000/svg" width="32" height="32" viewBox="0 0 24 24">
    <path d="M14.808594 13.042969C14.808594 11.476562 13.566406 10.234375 12 10.234375 10.433594 10.234375 9.191406 11.476562 9.191406 13.042969 9.191406 14.609375 10.433594 15.851562 12 15.851562 13.566406 15.851562 14.808594 14.609375 14.808594 13.042969zM12 15.050781C10.875 15.050781 9.992188 14.167969 9.992188 13.042969 9.992188 11.917969 10.875 11.035156 12 11.035156 13.125 11.035156 14.007812 11.917969 14.007812 13.042969 14.007812 14.167969 13.125 15.050781 12 15.050781zM9.550781 9.753906C9.59375 9.871094 9.671875 9.953125 9.792969 9.992188 9.832031 10.035156 9.871094 10.035156 9.914062 10.035156 9.992188 10.035156 10.074219 9.992188 10.113281 9.914062 11.238281 9.230469 12.722656 9.230469 13.847656 9.914062 13.964844 9.992188 14.085938 9.992188 14.207031 9.953125 14.328125 9.914062 14.40625 9.832031 14.449219 9.710938L16.894531 2.40625C16.9375 2.207031 16.855469 2.007812 16.65625 1.925781 15.171875 1.324219 13.605469 1.003906 12 1.003906 10.394531 1.003906 8.828125 1.324219 7.34375 1.964844 7.144531 2.046875 7.023438 2.246094 7.105469 2.449219zM16.011719 2.527344L13.847656 9.03125C12.683594 8.507812 11.316406 8.507812 10.152344 9.03125L7.988281 2.527344C10.554688 1.566406 13.445312 1.566406 16.011719 2.527344zM16.011719 2.527344"/>
    <path d="M23.679688 13.566406L16.054688 12C15.933594 12 15.773438 12.039062 15.691406 12.121094 15.613281 12.199219 15.53125 12.359375 15.570312 12.480469 15.613281 12.683594 15.613281 12.882812 15.613281 13.042969 15.613281 14.527344 14.730469 15.851562 13.363281 16.375 13.246094 16.414062 13.164062 16.535156 13.125 16.65625 13.082031 16.777344 13.125 16.9375 13.203125 17.015625L18.382812 22.875C18.421875 22.957031 18.542969 22.996094 18.664062 22.996094 18.742188 22.996094 18.824219 22.957031 18.902344 22.917969 21.871094 20.828125 23.71875 17.578125 24 14.007812 24 13.804688 23.878906 13.605469 23.679688 13.566406zM18.742188 22.035156L14.167969 16.894531C15.53125 16.132812 16.414062 14.648438 16.414062 13.042969 16.414062 13.003906 16.414062 12.964844 16.414062 12.921875L23.15625 14.289062C22.835938 17.378906 21.230469 20.1875 18.742188 22.035156zM10.636719 16.375C9.269531 15.851562 8.386719 14.527344 8.386719 13.042969 8.386719 12.882812 8.386719 12.683594 8.429688 12.480469 8.429688 12.359375 8.386719 12.199219 8.308594 12.121094 8.226562 12 8.066406 11.960938 7.945312 12L.320312 13.566406C.121094 13.605469 0 13.804688 0 14.007812.28125 17.578125 2.128906 20.828125 5.097656 22.917969 5.175781 22.957031 5.257812 22.996094 5.335938 22.996094 5.457031 22.996094 5.539062 22.957031 5.617188 22.835938L10.796875 17.015625C10.875 16.894531 10.917969 16.777344 10.875 16.65625 10.835938 16.535156 10.753906 16.414062 10.636719 16.375zM5.257812 22.035156C2.769531 20.1875 1.164062 17.378906.84375 14.289062L7.585938 12.921875C7.585938 12.964844 7.585938 13.003906 7.585938 13.042969 7.585938 14.648438 8.46875 16.132812 9.832031 16.894531zM5.257812 22.035156"/>
</svg>

<svg xmlns="http://www.w3.org/2000/svg" width="32" height="32" viewBox="0 0 24 24">
    <path d="M14.809 13.043A2.79 2.79 0 0 0 12 10.234a2.79 2.79 0 0 0-2.809 2.809A2.79 2.79 0 0 0 12 15.852a2.79 2.79 0 0 0 2.809-2.809zM12 15.051a1.988 1.988 0 0 1-2.008-2.008c0-1.125.883-2.008 2.008-2.008s2.008.883 2.008 2.008A1.988 1.988 0 0 1 12 15.051zm0 0M9.55 9.754c.044.117.122.2.243.238.039.043.078.043.121.043.078 0 .16-.043.2-.12a3.656 3.656 0 0 1 3.734 0 .394.394 0 0 0 .359.038c.121-.039.2-.121.242-.242l2.446-7.305c.043-.199-.04-.398-.239-.48A12.354 12.354 0 0 0 12 1.004c-1.605 0-3.172.32-4.656.96-.2.083-.32.282-.239.485zm6.462-7.227l-2.164 6.504a4.544 4.544 0 0 0-3.696 0L7.988 2.527c2.567-.96 5.457-.96 8.024 0zm0 0"/>
    <path d="M23.68 13.566L16.055 12c-.121 0-.282.04-.364.121-.078.078-.16.238-.12.36.042.203.042.402.042.562 0 1.484-.883 2.809-2.25 3.332-.117.04-.199.16-.238.281a.377.377 0 0 0 .078.36l5.18 5.859c.039.082.16.121.281.121a.57.57 0 0 0 .238-.078A12.025 12.025 0 0 0 24 14.008c0-.203-.121-.403-.32-.442zm-4.938 8.47l-4.574-5.141a4.435 4.435 0 0 0 2.246-3.852v-.121l6.742 1.367a11.072 11.072 0 0 1-4.414 7.746zm0 0M10.637 16.375c-1.367-.523-2.25-1.848-2.25-3.332 0-.16 0-.36.043-.563 0-.12-.043-.28-.121-.359-.082-.121-.243-.16-.364-.121L.32 13.566c-.199.04-.32.239-.32.442a12.025 12.025 0 0 0 5.098 8.91.57.57 0 0 0 .238.078c.121 0 .203-.039.281-.16l5.18-5.82c.078-.121.121-.239.078-.36-.04-.12-.121-.242-.238-.281zm-5.38 5.66A11.072 11.072 0 0 1 .845 14.29l6.742-1.367v.121c0 1.605.883 3.09 2.246 3.852zm0 0"/>
</svg>
